assets/icons/qvision/auto_awesome_motion.svg

<svg xmlns="http://www.w3.org/2000/svg" height="24" viewBox="0 0 24 24" width="24"><path d="M0 0h24v24H0z" fill="none"/><path d="M14 2H4c-1.11 0-2 .9-2 2v10h2V4h10V2zm4 4H8c-1.11 0-2 .9-2 2v10h2V8h10V6zm2 4h-8c-1.11 0-2 .9-2 2v8c0 1.1.89 2 2 2h8c1.1 0 2-.9 2-2v-8c0-1.1-.9-2-2-2z"/></svg>

<svg width="24" height="24" viewBox="0 0 24 24" fill="none" xmlns="http://www.w3.org/2000/svg">
<g clip-path="url(#clip0_147_3209)">
<path d="M14 2H4C2.89 2 2 2.9 2 4V14H4V4H14V2ZM18 6H8C6.89 6 6 6.9 6 8V18H8V8H18V6ZM20 10H12C10.89 10 10 10.9 10 12V20C10 21.1 10.89 22 12 22H20C21.1 22 22 21.1 22 20V12C22 10.9 21.1 10 20 10Z" fill="#323232"/>
</g>
<defs>
<clipPath id="clip0_147_3209">
<rect width="24" height="24" fill="white"/>
</clipPath>
</defs>
</svg>
